X: 8253
T: Córdoba
R: reel
M: 4/4
K: Eminor
EB,EF GFEB,|CEGA BEBd|e3d cBAc|BGBF BEED|
EB,EF GFEB,|CEGA BEBd|eaag abgf|1 edBA BdAF:|2 edBA Bdef||
g3f edBA|BeeB dBAG|F3G AFDF|EDEF ABde|
g3f edBA|BeeB dBAG|F3G AFDF|1 DEED E2ef:|2 DEED E2GF||

